packages/app/src/app/pages/Sandbox/Editor/Content/Tabs/preview.svg

<svg viewBox="0 0 200 200">
  <path
    d="M27,33 L173,33 C178.522847,33 183,37.4771525 183,43 L183,157 C183,162.522847 178.522847,167 173,167 L27,167 C21.4771525,167 17,162.522847 17,157 L17,43 C17,37.4771525 21.4771525,33 27,33 Z M29,64 L29,156 L171,156 L171,64 L29,64 Z M84.260356,82.6998802 L119.974518,107.161635 C121.797124,108.409995 122.262642,110.899505 121.014282,112.722111 C120.734924,113.129973 120.38238,113.482517 119.974518,113.761875 L84.260356,138.223629 C82.4377502,139.471989 79.9482404,139.006471 78.6998802,137.183866 C78.2439706,136.518238 78,135.730302 78,134.92351 L78,86 C78,83.790861 79.790861,82 82,82 C82.8067925,82 83.594728,82.2439706 84.260356,82.6998802 Z"
    id="Combined-Shape"
    fill="inherit"
  />
</svg>

<svg viewBox="0 0 200 200"><path d="M27 33h146c5.523 0 10 4.477 10 10v114c0 5.523-4.477 10-10 10H27c-5.523 0-10-4.477-10-10V43c0-5.523 4.477-10 10-10zm2 31v92h142V64H29zm55.26 18.7l35.715 24.462a4 4 0 010 6.6L84.26 138.224a4 4 0 01-6.26-3.3V86a4 4 0 016.26-3.3z" fill="inherit"/></svg>
